Papirus/64x64/places/folder-black-download-open.svg

<svg xmlns="http://www.w3.org/2000/svg" width="64" height="64" version="1">
 <rect style="opacity:0.2" width="56" height="36" x="4" y="22" rx="2.8" ry="2.8"/>
 <path style="fill:#3f3f3f" d="M 6.8,7 C 5.25,7 4,8.25 4,9.8 V 46.2 C 4,47.75 5.25,49 6.8,49 H 57.2 C 58.75,49 60,47.75 60,46.2 V 15.8 C 60,14.25 58.75,13 57.2,13 H 30 V 9.8 C 30,8.25 28.75,7 27.2,7 Z"/>
 <rect style="opacity:0.2" width="56" height="30" x="4" y="26" rx="2.8" ry="2.8"/>
 <rect style="fill:#dcdcdc" width="48" height="22" x="8" y="17" rx="2.8" ry="2.8"/>
 <rect style="fill:#4f4f4f" width="56" height="30" x="4" y="27" rx="2.8" ry="2.8"/>
 <path style="opacity:0.1;fill:#ffffff" d="M 6.8007812 7 C 5.2507813 7 4 8.2507812 4 9.8007812 L 4 10.800781 C 4 9.2507812 5.2507813 8 6.8007812 8 L 27.199219 8 C 28.749219 8 30 9.2507812 30 10.800781 L 30 9.8007812 C 30 8.2507812 28.749219 7 27.199219 7 L 6.8007812 7 z M 30 13 L 30 14 L 57.199219 14 C 58.749219 14 60 15.250781 60 16.800781 L 60 15.800781 C 60 14.250781 58.749219 13 57.199219 13 L 30 13 z"/>
 <path style="fill:#c2c2c2" d="m 30,32 v 8 h -4 l 6,8 6,-8 h -4 v -8 z m -6,16 v 4 h 16 v -4 z"/>
</svg>

<svg xmlns="http://www.w3.org/2000/svg" width="64" height="64" version="1">
 <rect style="opacity:0.2" width="56" height="36" x="4" y="22" rx="2.8" ry="2.8"/>
 <path style="fill:#3f3f3f" d="M 6.8,7 C 5.25,7 4,8.25 4,9.8 V 46.2 C 4,47.75 5.25,49 6.8,49 H 57.2 C 58.75,49 60,47.75 60,46.2 V 15.8 C 60,14.25 58.75,13 57.2,13 H 30 V 9.8 C 30,8.245 28.75,7 27.2,7 Z"/>
 <rect style="opacity:0.2" width="56" height="30" x="4" y="26" rx="2.8" ry="2.8"/>
 <rect style="fill:#dcdcdc" width="48" height="22" x="8" y="16" rx="2.8" ry="2.8"/>
 <rect style="fill:#4f4f4f" width="56" height="30" x="4" y="27" rx="2.8" ry="2.8"/>
 <path style="opacity:0.1;fill:#ffffff" d="M 6.8,7 C 5.25,7 4,8.25 4,9.8 V 10.8 C 4,9.25 5.25,8 6.8,8 H 27.2 C 28.75,8 30,9.2458 30,10.8 V 9.8 C 30,8.2458 28.75,7 27.2,7 Z M 30,13 V 14 H 57.2 C 58.745,14 60,15.25 60,16.8 V 15.8 C 60,14.25 58.75,13 57.2,13 Z"/>
 <path style="fill:#c2c2c2" d="M 30,32 V 40 H 26 L 32,48 38,40 H 34 V 32 Z M 24,48 V 52 H 40 V 48 Z"/>
</svg>
